X:160
T:RVW2/2/160 Henry Martin
C:Mr and Mrs Verrall, Horsham, Sussex, 8 October 1904
L:1/4
Q:1/4=120
M:3/4
I:linebreak $
K:F
"^(Editorial suggestion " C | C G G | F G G | G F D | C2 (C/D/) | E F G |$ B G c | G2 G | G c c | 
w: In|Scot- land in|Scot- land there|lived bro- thers|three in _|Scot- land there|lived bro- thers|three and|they did cast|
B A G | G C D |$ F G A | G2 D/F/ |[M:4/4] G G G c |[M:3/4] B A G | A C D |$ F G A | G2 E/F/ | 
w: lots o'er the|three o'er the|three o'er the|three to know|which was to turn|rob- ber all|on the salt|sea the salt|sea to main-|
G c c | G F D | C2 ||$"^Verses 2 etc." (G/>E/) | C2 C | G2 G | G F D | C2 C | (E F) G |$ (B G) c | 
w: tain his two|bro- thers and|he.|The _|lot it|fell on|Hen- ry Mar-|tin the|youn- * gest|of _ the|
G2 (E/F/) | G G c | B A G | G C D |${/E} F G A | G2 E/F/ | G c c | G F D | C2 ||$ 
w: three to _|go a- Scotch-|rob- bing all|on the salt|sea the salt|sea to main-|tain his two|bro- thers and|he.|
"^Verse 3" (G/>E/) | C (C E) | G F3/2 E/ | D F D | C2 C | E F G |$ B G c | G2 E/F/ | G G c | 
w: They _|had not _|sai- lï¿½d three|cold win- ter's|nights *|||||
B A G | G C D |${/E} F G A | G2 E/F/ | G c c | G F D | C2 |] 
w: |||||||



